X:25
T: Pao han chuan
N: C0033
O: China,Shaanxi, Shanbei
S: I, 82]
N: Wenig Verzierungen.
R: Wuge, Hanchuan. Miaoxie Wudao yanyuan]
M: 2/4
L: 1/16
K: C
z2G2G2E2 | e3de4- | e8- | e8 | c3de2e2 | e3dd2c2- | c2
edc2BA | G2E2G3A | c2c2AcE2 | G8 |
A3BA2G2 | A2B2A2G2 | A3cE3D | EDE2E4 |
e3ed2e2 | dgA2c4 |
e3dc4 | e3dc4 | e3de3d | egegc4 |
A3cA2G2 | E3cEDED | C8

@@@ Tune index: 6026
